X:1790
T:Lodge Road, The
T:Botar Na Congbail
C:"collected by J.O'Neill"
S:1790 O'Neill's Music of Ireland
B:O'Neill's 1790
Z:Transcribed by Robert Thorpe (thorpe@skep.com)
Z:ABCMUS 1.0
M:2/4
Q:60
K:D
A|dd/f/ e/d/c/B/|AA AF|D/F/A/F/ D/F/A/F/|GF/G/ EA|
  dd/f/ e/d/c/B/|AA AF|D/F/A/F/ GE/F/|DD D:|
A|d/e/f/g/ a/g/f/e/|d/e/f/g/ aa/f/|ge/g/ fd/f/|e/d/c/B/ A/B/c/A/|
ff gg|ee ff/-e/|d/f/a/f/ d/f/a/f/|gf/g/ e z|
ff gg|ee ff/e/|d/f/a/f/ b/g/e/c/|dd/e/ d/c/B/A/:|


